X: 42170
T: Waterboogie
R: slip jig
M: 9/8
K: Fmajor
~F3 AGE FGA|Bdf e2c ABG|
~F3 AGE FGA|1 BGc dBc ABG:|2 BGE EFG FGA||
Bdf e2f cFG|A2A2 Bc cBA|1 Bdf e2c dfg|
aba gfe f2c:|2 ~B3 GAB GAB|c2c3c3||

